!!!OTL: Ri luo xishan
!!!ARE: Asia, China,ˇYunnan, Shigu
!! II, 85
!!!SCT: C1495
!!!YEM: Copyright 1995, estate of Helmut Schaffrath.
**kern
*ICvox
*Ivox
*M4/4
*k[]
*C:
{1a
=1
1dd
=2
4cc
4dd
2a}
=3
{4a
4ee
4dd
4cc
=4
4f
4g
16a
8.g
8e
8d
=5
4g
8g
8cc
4a
4a
=6
8g
8a
8g
8e
2d}
=7
{4f
8f
8g
4a
4dd
=8
8dd
8cc
8f
8g
2a
=9
4g
8g
8cc
4a
4a
=10
8g
8a
8g
8e
2d}
==
!!!AGN: Shange. NannÅ qing
!!!AMT: simple quadruple
!!!AIN: vox
!!!EED: Helmut Schaffrath
!!!EEV: 1.0
*-
